X: 1161
T: Isfahân Seyir
C: Erol Bingöl
O: Turkey
F: http://compmusic.upf.edu/node/140
N: isfahan--seyir--sofyan--1--erol_bingol
N: makam= isfahan
N: form= seyir
N: usul= sofyan = 4/4
M: 4/4
L: 1/16
K: C _2/4B   
Q: 1/4=60
%%MIDI tuningsystem comma53
d4 A4 =B2^c2 d4  | e2f2 e2f2 a2g2 f2e2  | \
w:   |   | 
fefg e2d2 ^c2d2 e2ed  | 
w:   | 
d16  | d4 a4 g2f2 e2d2  | e2f2 e2d2 g2f2 e2d2  | \
w:   |   |   | 
c2B2 c2d2 d2f2 e2d2  | 
w:   | 
c3B cBBA A8  | |


